X:13
T:Miss Carberrys Reel. LIT.013
T:Mason's Apron,aka. LIT.013
M:2/4
Q:1/4=150
L:1/8
B:Wm. Litten MS, 1802
Z:Village Music Project 2017 Anne Wride
K:G
d | BG GA | GA GE | DE GA | B2 AG |
cA AB | AB AG | EA AB | c2 Ac |
BG GA | GA GE | DE GA | B2 AG |
AB cd | ed eg | GA BG | A2 G :|
|: d | B>G d>G | e>G d>G | B>G d>G | ed cB |
cA eA | =f>A e>A | c>A e>A | =fe dc |
B>G d>G | e>G d>G | DE GA | B2 AG |
AB cd | ed eg | GA BG | A2G :|

